main-pages/gulp-scss-starter/dist/img/default/offer/services5.svg

<svg width="25" height="23" viewBox="0 0 25 23" fill="none" xmlns="http://www.w3.org/2000/svg">
<path d="M15.261 3.41024C15.261 2.01301 14.123 0.875 12.7257 0.875L12.6007 0.875V0.878049C11.2613 0.943499 10.1895 2.05485 10.1895 3.41024L10.1895 3.41132L10.1895 3.41183C10.1905 3.67391 10.2327 3.9339 10.3133 4.1828L11.3032 10.127L11.3206 10.2314H11.4265H14.024H14.1299L14.1473 10.127L15.1356 4.19153C15.2177 3.93988 15.2603 3.67666 15.261 3.41164V3.41131V3.41024ZM14.3753 3.98529L14.3713 3.99633L14.3693 4.00794L13.463 9.44476H11.9874L11.0801 4.00271L11.0783 3.99211L11.0747 3.98197L11.0676 3.96168C11.0076 3.78383 10.9769 3.59713 10.9761 3.40898C10.9768 2.44043 11.7568 1.66166 12.7257 1.66166C13.6949 1.66166 14.4743 2.44093 14.4743 3.41011C14.4738 3.59969 14.4429 3.78764 14.3821 3.96691L14.3753 3.98529Z" fill="#616161" stroke="#616161" stroke-width="0.25"/>
<path d="M12.7256 9.56934C10.2142 9.56934 8.17188 11.6106 8.17188 14.122C8.17188 16.6335 10.2142 18.6757 12.7256 18.6757C15.237 18.6757 17.2783 16.6335 17.2783 14.122C17.2783 11.6106 15.237 9.56934 12.7256 9.56934ZM12.7256 10.106C14.9471 10.106 16.7416 11.9005 16.7416 14.122C16.7416 16.3435 14.9471 18.1391 12.7256 18.1391C10.5041 18.1391 8.70853 16.3435 8.70853 14.122C8.70853 11.9005 10.5041 10.106 12.7256 10.106Z" fill="#616161" stroke="#616161" stroke-width="0.25"/>
<path d="M16.8323 14.8429L16.7331 14.8058L16.6802 14.8975L15.382 17.1466L15.329 17.2383L15.4108 17.3056L20.0576 21.1303C20.2342 21.3267 20.4407 21.4953 20.6695 21.6282L20.6698 21.6284C21.8799 22.327 23.4351 21.9097 24.1337 20.6997C24.8295 19.4945 24.4194 17.9478 23.2205 17.2452L23.2191 17.2438L23.2046 17.2355C22.9773 17.1056 22.7317 17.0119 22.4759 16.9573L16.8323 14.8429ZM22.2482 17.7122L22.2577 17.7157L22.2676 17.7177L22.2885 17.7219C22.4727 17.7587 22.6494 17.8248 22.8125 17.918C23.6517 18.4027 23.9373 19.4676 23.4527 20.3069C22.9681 21.1463 21.9031 21.432 21.0638 20.9475C20.8995 20.8521 20.7527 20.7312 20.6276 20.5883L20.613 20.5716L20.6062 20.5639L20.5983 20.5574L16.3429 17.0544L17.0812 15.7763L22.2482 17.7122Z" fill="#616161" stroke="#616161" stroke-width="0.25"/>
<path d="M8.66748 14.8975L8.61454 14.8058L8.51536 14.8429L2.87032 16.9578C2.6155 17.0125 2.36969 17.1059 2.14307 17.2355L2.12858 17.2438L2.12718 17.2452C0.928215 17.9478 0.518107 19.4945 1.21394 20.6997C1.91253 21.9097 3.46777 22.3271 4.67785 21.6284L4.67813 21.6283C4.90698 21.4953 5.11342 21.3267 5.29004 21.1303L9.93686 17.3056L10.0186 17.2384L9.96568 17.1466L8.66748 14.8975ZM4.74934 20.5574L4.73966 20.5654L4.73177 20.5751L4.71966 20.59C4.59495 20.732 4.44767 20.8524 4.28379 20.9475C3.44448 21.432 2.37954 21.1463 1.89494 20.3069C1.41049 19.4678 1.69552 18.4028 2.5342 17.9179C2.69734 17.8247 2.87447 17.7588 3.05918 17.7219C3.05919 17.7219 3.0592 17.7219 3.05921 17.7219L3.0801 17.7177L3.09001 17.7157L3.09947 17.7122L8.26647 15.7763L9.00474 17.0544L4.74934 20.5574Z" fill="#616161" stroke="#616161" stroke-width="0.25"/>
</svg>

<svg width="25" height="23" viewBox="0 0 25 23" fill="none" xmlns="http://www.w3.org/2000/svg"><path d="M15.261 3.41A2.539 2.539 0 0012.726.875H12.6v.003a2.54 2.54 0 00-2.412 2.532v.001h0c.002.263.044.523.124.772l.99 5.944.018.104h2.81l.017-.104.989-5.935a2.55 2.55 0 00.125-.78v0-.002zm-.886.575l-.004.011-.002.012-.906 5.437h-1.476l-.907-5.442-.002-.01-.003-.011-.007-.02a1.745 1.745 0 011.658-2.3 1.744 1.744 0 011.656 2.305l-.007.018z" fill="#616161" stroke="#616161" stroke-width=".25"/><path d="M12.726 9.57a4.557 4.557 0 00-4.554 4.552 4.558 4.558 0 004.554 4.554 4.557 4.557 0 004.552-4.554 4.556 4.556 0 00-4.552-4.553zm0 .536a4.011 4.011 0 014.016 4.016 4.012 4.012 0 01-4.016 4.017 4.013 4.013 0 01-4.017-4.017 4.012 4.012 0 014.017-4.016z" fill="#616161" stroke="#616161" stroke-width=".25"/><path d="M16.832 14.843l-.099-.037-.053.092-1.298 2.249-.053.091.082.068 4.647 3.824c.176.197.383.365.611.498h0a2.54 2.54 0 003.465-.928 2.539 2.539 0 00-.913-3.455l-.002-.001-.014-.009a2.534 2.534 0 00-.73-.278l-5.643-2.114zm5.416 2.87l.01.003.01.002.02.004a1.745 1.745 0 011.164 2.585 1.745 1.745 0 01-2.824.281l-.015-.016-.007-.008-.008-.007-4.255-3.503.738-1.278 5.167 1.936zM8.667 14.898l-.052-.092-.1.037-5.645 2.115c-.255.055-.5.148-.727.277l-.014.009-.002.001a2.539 2.539 0 00-.913 3.455 2.54 2.54 0 003.464.928h0c.229-.133.435-.301.612-.498l4.647-3.824.082-.068-.053-.091-1.299-2.25zm-3.918 5.66l-.01.007-.007.01-.012.015a1.745 1.745 0 01-2.825-.283 1.745 1.745 0 011.164-2.585s0 0 0 0l.021-.004.01-.002.01-.004 5.166-1.936.739 1.278-4.256 3.503z" fill="#616161" stroke="#616161" stroke-width=".25"/></svg>
